<?xml version="1.0" encoding="UTF-8"?>
<map version="1.10" tiledversion="1.12.2" orientation="orthogonal" renderorder="right-down" width="30" height="20" tilewidth="8" tileheight="8" infinite="0" nextlayerid="2" nextobjectid="1">
 <editorsettings>
  <export target="../../source/maps/basemap.tmj" format="json"/>
 </editorsettings>
 <tileset firstgid="1" source="basemap_tiles.tsx"/>
 <layer id="1" name="BaseMap" width="30" height="20">
  <data encoding="csv">
1,1,1,1,1,1,1,1,1,1,1,1,1,1,1,1,1,1,1,1,1,1,1,1,1,1,1,1,1,1,
1,1,1,1,1,1,1,1,1,1,1,1,1,1,1,1,1,1,1,1,1,1,1,1,1,1,1,1,1,1,
1,1,1,1,1,1,1,1,1,1,1,1,1,1,1,1,1,1,1,1,1,1,1,1,1,1,1,1,1,1,
1,1,1,1,1,1,1,1,1,1,1,1,1,1,1,1,1,1,1,1,1,1,1,1,1,1,1,1,1,1,
1,1,1,1,1,66,71,72,187,188,187,188,67,68,69,70,67,68,67,68,67,68,71,72,73,1,1,1,1,1,
1,1,1,1,1,96,101,102,217,218,217,218,97,98,99,100,97,98,97,98,97,98,101,102,103,1,1,1,1,1,
1,1,1,1,1,126,67,68,129,130,129,130,129,130,129,130,129,130,129,130,129,130,69,70,133,1,1,1,1,1,
1,1,1,1,1,156,97,98,159,160,159,160,159,160,159,160,159,160,159,160,159,160,99,100,163,1,1,1,1,1,
1,1,1,1,1,186,67,68,0,0,0,0,0,0,0,0,0,0,0,0,0,0,67,68,103,1,1,1,1,1,
1,1,1,1,1,216,97,98,0,0,0,0,0,0,0,0,0,0,0,0,0,0,97,98,133,1,1,1,1,1,
1,1,1,1,1,126,187,188,0,0,0,0,0,0,0,0,0,0,0,0,0,0,67,68,163,1,1,1,1,1,
1,1,1,1,1,156,217,218,0,0,0,0,0,0,0,0,0,0,0,0,0,0,97,98,103,1,1,1,1,1,
1,1,1,1,1,126,67,68,0,0,0,0,0,0,0,0,0,0,0,0,0,0,69,70,133,1,1,1,1,1,
1,1,1,1,1,156,97,98,0,0,0,0,0,0,0,0,0,0,0,0,0,0,99,100,163,1,1,1,1,1,
1,1,1,1,1,186,67,68,67,68,127,128,67,68,69,70,67,68,67,68,67,68,67,68,193,1,1,1,1,1,
1,1,1,1,1,216,97,98,97,98,157,158,97,98,99,100,97,98,97,98,97,98,97,98,223,1,1,1,1,1,
1,1,1,1,1,246,247,248,247,248,247,248,247,248,249,250,247,248,247,248,247,248,247,248,253,1,1,1,1,1,
1,1,1,1,1,1,1,1,1,1,1,1,1,1,1,1,1,1,1,1,1,1,1,1,1,1,1,31,32,1,
1,1,1,1,1,1,1,1,1,1,1,1,1,1,1,1,1,1,1,1,1,1,1,1,1,1,1,1,1,1,
1,1,1,1,1,1,1,1,1,1,1,1,1,1,1,1,1,1,1,1,1,1,1,1,1,1,1,1,1,1
</data>
 </layer>
</map>
